Newaita-dark/.DP/22/smartphonetrusted.svg

<svg xmlns="http://www.w3.org/2000/svg" xmlns:xlink="http://www.w3.org/1999/xlink" width="22px" height="22px" viewBox="0 0 22 22" version="1.1">
<g id="surface1">
<path style=" stroke:none;fill-rule:nonzero;fill:rgb(14.901961%,65.098041%,60.392159%);fill-opacity:1;" d="M 5.910156 2.898438 C 5.410156 2.898438 5.003906 3.308594 5.003906 3.808594 L 5.003906 18.363281 C 5.003906 18.867188 5.410156 19.273438 5.910156 19.273438 L 15.917969 19.273438 C 16.421875 19.273438 16.828125 18.867188 16.828125 18.363281 L 16.828125 3.808594 C 16.828125 3.308594 16.421875 2.898438 15.917969 2.898438 Z M 7.277344 4.71875 L 14.554688 4.71875 C 14.804688 4.71875 15.007812 4.921875 15.007812 5.175781 L 15.007812 15.636719 C 15.007812 15.886719 14.804688 16.089844 14.554688 16.089844 L 7.277344 16.089844 C 7.023438 16.089844 6.820312 15.886719 6.820312 15.636719 L 6.820312 5.175781 C 6.820312 4.921875 7.023438 4.71875 7.277344 4.71875 Z M 9.550781 17 L 12.28125 17 C 12.53125 17 12.734375 17.203125 12.734375 17.453125 L 12.734375 17.910156 C 12.734375 18.160156 12.53125 18.363281 12.28125 18.363281 L 9.550781 18.363281 C 9.300781 18.363281 9.09375 18.160156 9.09375 17.910156 L 9.09375 17.453125 C 9.09375 17.203125 9.300781 17 9.550781 17 Z M 9.550781 17 "/>
</g>
</svg>

<svg xmlns="http://www.w3.org/2000/svg" width="22pt" height="22pt" viewBox="0 0 22 22"><path d="M5.914 2.902a.905.905 0 0 0-.91.907v14.554c0 .504.406.91.91.91h10.004c.504 0 .91-.406.91-.91V3.81a.905.905 0 0 0-.91-.907zM7.277 4.72h7.278c.25 0 .453.203.453.457v10.46c0 .25-.203.454-.453.454H7.277a.454.454 0 0 1-.457-.453V5.176c0-.254.203-.457.457-.457zM9.551 17h2.73c.25 0 .453.203.453.453v.457c0 .25-.203.453-.453.453h-2.73a.451.451 0 0 1-.453-.453v-.457c0-.25.199-.453.453-.453zm0 0" fill="#26a69a"/></svg>
